X: 1304
T: Bourke's Dream Schottische
B: australian traditional tunes wiki
M:4/4
L:1/8
R: Schottische
Q: 1/4=100
K:G
V:1 
"G"G2 B>dd2Bd|"Em"b2g>Bd2c>B|"Am"AG AB "D7"d>c B>A|"G"G2B>c"D7"d2d>B|
"G"G2B>dd2Bd|"Em"b2g>Bd2c>B|"Am"A2a2"D7"gf ed|"G"g2 b>ag4|
"D"a2 a>b a>fd2|A2d>f "A7"g<e ^c<A|"G"g2g>g "D"f<a a>g|"Em"ed d>e "D7"dc B>A|
"G"G2B>d d2B>d|"Em"b2g>Bd2 c>B|"Am"A2a2"D7"g>f e>d|"G"g2b>ag4||
% abcbook-tune_id 6342d53aa90fe609fcb84457


% abcbook-boost 0
% abcbook-tablature 
% abcbook-transpose 
% abcbook-lastupdated 1665324358242
% abcbook-soundfonts 
% abcbook-repeats 1
% NFF Book 2008

